brandFactory_export/2.Regular/Premio primero ganador _2Regular.svg

<?xml version="1.0" encoding="UTF-8"?>
<svg width="24px" height="24px" viewBox="0 0 24 24" version="1.1" xmlns="http://www.w3.org/2000/svg" xmlns:xlink="http://www.w3.org/1999/xlink">
    <title>2.Regular/Premio primero ganador _2Regular</title>
    <g id="Symbols" stroke="none" stroke-width="1" fill="none" fill-rule="evenodd">
        <g id="2.Regular/Premio-primero-ganador-_2Regular" fill="#5CB615" fill-rule="nonzero">
            <path d="M19.0151261,19.0420168 L20.9344538,19.7478992 L18.1445378,13.7008403 C17.0655462,14.6588235 15.610084,15.210084 13.8285714,15.3747899 L16.7394958,21.687395 L17.4554622,19.7579832 C17.697479,19.1327731 18.3932773,18.8168067 19.0151261,19.0420168 L19.0151261,19.0420168 Z M7.95966387,21.6840336 L10.8941176,15.3176471 C9.1394958,15.0689076 7.73781513,14.4033613 6.72941176,13.3176471 L3.76134454,19.7579832 L5.68403361,19.0453782 C6.30252101,18.8201681 7.00168067,19.1361345 7.24033613,19.7546218 L7.95966387,21.6840336 L7.95966387,21.6840336 Z M12.6319328,1.49243697 C8.38319328,1.49243697 6.40336134,3.47226891 6.40336134,7.7210084 C6.40336134,11.9697479 8.38319328,13.9462185 12.6319328,13.9462185 C16.8840336,13.9462185 18.8638655,11.9697479 18.8638655,7.7210084 C18.8638655,3.46890756 16.8840336,1.49243697 12.6319328,1.49243697 Z M22.5714286,19.7378151 C22.7663866,20.1613445 22.7058824,20.6487395 22.410084,21.0117647 C22.1176471,21.3714286 21.6537815,21.5327731 21.2,21.4319328 L18.7563025,20.5411765 L17.8789916,22.8941176 C17.6302521,23.3781513 17.2201681,23.6268908 16.7663866,23.6268908 L16.7327731,23.6268908 C16.2655462,23.6134454 15.8554622,23.3445378 15.6638655,22.9243697 L12.3462185,15.7310924 L9.03193277,22.9243697 C8.83697479,23.3478992 8.42689076,23.6168067 7.96302521,23.6302521 L7.92605042,23.6302521 C7.47563025,23.6302521 7.06554622,23.3848739 6.85378151,22.9848739 L5.93613445,20.5445378 L3.58655462,21.4084034 C3.03865546,21.5361345 2.57815126,21.3747899 2.28235294,21.0151261 C1.98991597,20.6521008 1.92941176,20.1647059 2.12436975,19.7445378 L5.70756303,11.9697479 C5.71764706,11.9462185 5.73781513,11.9294118 5.7512605,11.9092437 C5.2,10.7932773 4.90756303,9.40168067 4.90756303,7.72773109 C4.90756303,2.47058824 7.7512605,0.0100840336 12.6285714,0.0100840336 C17.5058824,0.0100840336 20.3529412,2.47058824 20.3529412,7.72773109 C20.3529412,9.68739496 19.9563025,11.2571429 19.210084,12.4537815 L22.5714286,19.7378151 Z M11.4823529,6.9210084 L10.087395,7.13277311 L11.112605,8.13781513 C11.2840336,8.3092437 11.3647059,8.58487395 11.3243697,8.82352941 L11.0890756,10.2487395 L12.2689076,9.56638655 C12.4941176,9.43865546 12.7731092,9.44537815 12.9983193,9.56638655 L14.1815126,10.2151261 L13.9428571,8.81008403 C13.902521,8.57478992 13.989916,8.30588235 14.1579832,8.13445378 L15.1563025,7.11932773 L13.794958,6.9210084 C13.5394958,6.88403361 13.3109244,6.70252101 13.2067227,6.46722689 L12.5983193,5.18319328 L12.0470588,6.4907563 C11.9462185,6.7092437 11.7243697,6.87731092 11.4823529,6.9210084 L11.4823529,6.9210084 Z M9.79495798,8.92436975 L9.0487395,8.16470588 C8.65210084,7.76134454 8.5210084,7.17983193 8.69915966,6.64201681 C8.87394958,6.11428571 9.3210084,5.73781513 9.86554622,5.65378151 L10.8672269,5.50252101 L11.3210084,4.54453782 C11.5663866,4.02689076 12.0705882,3.70756303 12.6352941,3.70756303 C13.2,3.70756303 13.7042017,4.02689076 13.9495798,4.54453782 L14.4067227,5.50588235 L15.405042,5.65714286 C15.9462185,5.73781513 16.3932773,6.11764706 16.5714286,6.64537815 C16.7495798,7.18655462 16.6151261,7.76806723 16.2218487,8.16806723 L15.4756303,8.92773109 L15.6537815,10.010084 C15.7478992,10.5781513 15.5193277,11.1361345 15.0521008,11.4655462 C14.605042,11.7815126 14.0033613,11.8151261 13.5260504,11.5563025 L12.6352941,11.0689076 L11.7512605,11.5529412 C11.5327731,11.6739496 11.2941176,11.7310924 11.0554622,11.7310924 C10.7630252,11.7310924 10.4739496,11.6403361 10.2218487,11.4621849 C9.75798319,11.1361345 9.52605042,10.5781513 9.62016807,10.0067227 L9.79495798,8.92436975 L9.79495798,8.92436975 Z" id="Premio-primero-ganador-_2Regular"></path>
        </g>
    </g>
</svg>

<svg width="24" height="24" viewBox="0 0 24 24" xmlns="http://www.w3.org/2000/svg"><path d="M19.015 19.042l1.92.706-2.79-6.047c-1.08.958-2.535 1.51-4.316 1.674l2.91 6.312.716-1.929a1.229 1.229 0 011.56-.716zM7.96 21.684l2.934-6.366c-1.755-.25-3.156-.915-4.165-2l-2.968 6.44 1.923-.713a1.227 1.227 0 011.556.71l.72 1.929zm4.672-20.192c-4.249 0-6.229 1.98-6.229 6.229 0 4.249 1.98 6.225 6.229 6.225 4.252 0 6.232-1.976 6.232-6.225 0-4.252-1.98-6.229-6.232-6.229zm9.94 18.246c.194.423.134.91-.162 1.274-.292.36-.756.52-1.21.42l-2.444-.89-.877 2.352c-.249.484-.659.733-1.113.733h-.033a1.202 1.202 0 01-1.07-.703l-3.317-7.193-3.314 7.193a1.207 1.207 0 01-1.069.706h-.037c-.45 0-.86-.245-1.072-.645l-.918-2.44-2.35.863c-.547.128-1.008-.033-1.304-.393a1.206 1.206 0 01-.158-1.27l3.584-7.775c.01-.024.03-.04.043-.06-.551-1.117-.843-2.508-.843-4.182C4.908 2.47 7.75.01 12.628.01c4.878 0 7.725 2.46 7.725 7.718 0 1.96-.397 3.53-1.143 4.726l3.361 7.284zM11.481 6.92l-1.395.212 1.026 1.005a.814.814 0 01.211.686l-.235 1.425 1.18-.683a.76.76 0 01.73 0l1.183.65-.24-1.406a.81.81 0 01.216-.676l.998-1.015-1.361-.198a.784.784 0 01-.588-.454l-.609-1.284-.55 1.308a.79.79 0 01-.566.43zM9.795 8.924l-.746-.76a1.489 1.489 0 01-.35-1.522 1.457 1.457 0 011.167-.988l1.001-.151.454-.958c.245-.518.75-.837 1.314-.837.565 0 1.07.319 1.315.837l.457.96.998.152c.541.08.988.46 1.166.988a1.493 1.493 0 01-.35 1.523l-.745.76.178 1.082a1.461 1.461 0 01-2.128 1.546l-.89-.487-.885.484a1.43 1.43 0 01-1.53-.09 1.47 1.47 0 01-.6-1.456l.174-1.083z" fill="#5CB615" fill-rule="nonzero"/></svg>
